build/img/svg/info-features-delivery-item.svg

<svg width="136" height="165" viewBox="0 0 136 165" fill="none" xmlns="http://www.w3.org/2000/svg">
<g clip-path="url(#clip0_44041_288)">
<path d="M93.1329 39.2669C101.254 39.2669 108.078 33.7249 110.033 26.2179L115.5 27.0319C115.607 27.0479 115.715 27.0559 115.82 27.0559C116.871 27.0559 117.791 26.2859 117.951 25.2159C118.127 24.0379 117.312 22.9399 116.135 22.7649L110.594 21.9399C110.596 21.8939 110.598 21.8489 110.598 21.8019C110.598 21.6199 110.592 21.4399 110.584 21.2599C110.584 21.2599 110.133 14.7419 109.51 12.0229C108.889 9.30394 106.975 8.72694 106.975 8.72694C97.2049 6.51494 87.2029 6.28894 84.5999 6.28894C81.9969 6.28894 81.4419 7.62094 81.4419 7.62094L78.2919 12.6169L78.2819 12.6139C78.2059 12.7359 78.136 12.8589 78.063 12.9819L78.0359 13.0249C76.5339 15.6049 75.6689 18.6009 75.6689 21.8019C75.6679 31.4479 83.4879 39.2669 93.1329 39.2669Z" fill="white"/>
<path d="M131.535 78.576V78.574L104.793 76.406L95.5469 55.294C95.5469 55.294 95.0859 52.52 89.5389 46.818C83.9899 41.116 72.7399 43.428 72.7399 43.428C72.7399 43.428 48.8539 47.897 40.9949 49.746C33.1349 51.596 32.8269 59.609 32.8269 59.609L32.1949 64.128L17.0169 61.187C16.8259 61.15 16.6359 61.132 16.4489 61.132C15.0419 61.132 13.7779 62.132 13.5009 63.561L6.08995 101.803C5.77595 103.423 6.84395 105.005 8.46495 105.319L59.6609 115.242C59.7759 115.264 59.8909 115.266 60.0069 115.275H60.0089C59.2809 115.379 58.7179 115.24 58.7179 115.24L49.3179 113.391L46.2359 130.496L22.6759 150.859C20.9749 152.22 19.8839 154.312 19.8839 156.66C19.8839 160.764 23.2099 164.09 27.3129 164.09C29.3479 164.09 31.1909 163.272 32.5329 161.945C32.5329 161.945 60.2579 139.895 62.1079 138.354C63.9579 136.814 64.8809 134.501 64.8809 134.501C64.8809 134.501 69.422 120.553 70.66 117.627C71.5079 115.623 75.5919 116.548 75.5919 116.548L98.4769 125.179L106.092 154.241C106.174 154.871 106.334 155.475 106.565 156.045H106.567C107.665 158.773 110.337 160.699 113.456 160.699C117.56 160.699 120.886 157.372 120.886 153.269C120.886 152.67 120.814 152.09 120.679 151.533C119.837 146.568 116.075 124.487 115.118 119.707C114.04 114.313 110.497 112.773 110.497 112.773C110.497 112.773 89.229 101.215 87.8429 100.444C86.4559 99.674 86.7649 97.67 86.7649 97.67L90.6949 83.339L93.4679 89.195C93.4679 89.195 95.087 92.469 97.5519 92.586L130.909 93.406C135.013 93.406 138.339 90.08 138.339 85.975C138.338 82.086 135.346 78.896 131.535 78.576ZM60.1039 63.307L58.3149 69.187L68.2129 71.106L47.9989 67.189L48.5469 64.693L60.1039 63.307ZM57.8549 108.78L12.5509 99.999L18.8209 67.646L31.3629 70.077L29.7449 81.644L29.1049 86.05C29.0999 86.076 29.0969 86.106 29.0929 86.132L29.0749 86.259H29.0769C29.0369 86.571 29.0139 86.888 29.0139 87.21C29.0139 91.314 32.3409 94.639 36.4439 94.639C40.5469 94.639 43.8729 91.314 43.8729 87.21C43.8729 86.892 43.8519 86.58 43.8119 86.273L46.7129 73.05L64.1259 76.424L57.8549 108.78Z" fill="white"/>
<path d="M25.05 17.508H63.077C64.177 17.508 65.0771 16.612 65.0771 15.518C65.0771 14.424 64.177 13.528 63.077 13.528H25.05C23.95 13.528 23.05 14.424 23.05 15.518C23.05 16.612 23.95 17.508 25.05 17.508Z" fill="white"/>
<path d="M38.0798 23.5249C36.9798 23.5249 36.0798 24.4209 36.0798 25.5149C36.0798 26.6089 36.9798 27.5049 38.0798 27.5049H61.0388C62.1388 27.5049 63.0388 26.6089 63.0388 25.5149C63.0388 24.4199 62.1388 23.5249 61.0388 23.5249H38.0798Z" fill="white"/>
<path d="M87.0981 33.232C95.2191 33.232 102.043 27.69 103.998 20.183L109.465 20.997C109.572 21.013 109.68 21.021 109.785 21.021C110.836 21.021 111.756 20.251 111.916 19.181C112.092 18.003 111.277 16.905 110.1 16.73L104.559 15.905C104.561 15.859 104.563 15.814 104.563 15.767C104.563 15.585 104.557 15.405 104.549 15.225C104.549 15.225 104.098 8.70703 103.475 5.98803C102.854 3.26903 100.94 2.69203 100.94 2.69203C91.1701 0.480028 81.1681 0.254028 78.5641 0.254028C75.9601 0.254028 75.4061 1.58603 75.4061 1.58603L72.2561 6.58203L72.2461 6.57903C72.1701 6.70003 72.1001 6.82403 72.0271 6.94703L72.0001 6.99003C70.4981 9.57003 69.6331 12.566 69.6331 15.767C69.6331 25.413 77.4531 33.232 87.0981 33.232Z" fill="#3A3A3A"/>
<path d="M125.5 72.5411V72.5391L98.758 70.3711L89.512 49.2591C89.512 49.2591 89.051 46.4851 83.504 40.7831C77.955 35.0811 66.705 37.3931 66.705 37.3931C66.705 37.3931 42.819 41.8621 34.96 43.7101C27.1 45.5601 26.792 53.5731 26.792 53.5731L23.71 75.6091L23.07 80.0151C23.065 80.0411 23.062 80.0711 23.058 80.0971L23.04 80.2241H23.042C23.002 80.5361 22.979 80.8531 22.979 81.1751C22.979 85.2791 26.306 88.6041 30.409 88.6041C34.512 88.6041 37.838 85.2791 37.838 81.1751C37.838 80.8571 37.817 80.5451 37.777 80.2381L42.511 58.6571L54.068 57.2711L52.279 63.1511L62.177 65.0701C63.797 65.3831 64.865 66.9661 64.552 68.5871L57.14 106.83C56.863 108.26 55.599 109.26 54.192 109.26C54.12 109.26 54.046 109.244 53.972 109.239C53.244 109.343 52.681 109.204 52.681 109.204L43.281 107.355L40.199 124.46L16.639 144.823C14.938 146.184 13.847 148.276 13.847 150.624C13.847 154.728 17.173 158.054 21.276 158.054C23.311 158.054 25.154 157.236 26.496 155.909C26.496 155.909 54.221 133.859 56.071 132.318C57.921 130.778 58.844 128.465 58.844 128.465C58.844 128.465 63.385 114.517 64.623 111.591C65.471 109.587 69.555 110.512 69.555 110.512L92.44 119.143L100.055 148.205C100.137 148.835 100.297 149.439 100.528 150.009H100.53C101.628 152.737 104.3 154.663 107.419 154.663C111.523 154.663 114.849 151.336 114.849 147.233C114.849 146.634 114.777 146.054 114.642 145.497C113.8 140.532 110.038 118.451 109.081 113.671C108.003 108.277 104.46 106.737 104.46 106.737C104.46 106.737 83.193 95.1821 81.807 94.4101C80.42 93.6401 80.729 91.6361 80.729 91.6361L84.659 77.3051L87.432 83.1611C87.432 83.1611 89.051 86.4351 91.516 86.5521L124.873 87.3721C128.977 87.3721 132.303 84.0461 132.303 79.9411C132.303 76.0511 129.311 72.8601 125.5 72.5411Z" fill="#3A3A3A"/>
<path d="M53.9708 109.644H53.9728C54.0458 109.65 54.1198 109.665 54.1928 109.665C55.5998 109.665 56.8638 108.665 57.1408 107.235L64.5528 68.992C64.8658 67.371 63.7978 65.789 62.1778 65.475L41.9638 61.558L40.6778 67.42L58.0908 70.794L51.8198 103.148L6.51579 94.369L12.7858 62.016L25.3278 64.447L26.1598 58.497L10.9818 55.555C10.7908 55.518 10.6008 55.5 10.4138 55.5C9.00679 55.5 7.74279 56.5 7.46579 57.929L0.0547894 96.173C-0.259211 97.793 0.808789 99.375 2.42979 99.689L53.6258 109.612C53.7398 109.634 53.8548 109.635 53.9708 109.644Z" fill="#F0C42E"/>
<path d="M59.0419 9.48194C59.0419 10.5769 58.1419 11.4719 57.0419 11.4719H19.0149C17.9149 11.4719 17.0149 10.5759 17.0149 9.48194C17.0149 8.38794 17.9149 7.49194 19.0149 7.49194H57.0419C58.1419 7.49294 59.0419 8.38794 59.0419 9.48194Z" fill="#F0C52E"/>
<path d="M57.0039 19.48C57.0039 20.574 56.1039 21.47 55.0039 21.47H32.0439C30.9439 21.47 30.0439 20.574 30.0439 19.48C30.0439 18.385 30.9439 17.49 32.0439 17.49H55.0029C56.1039 17.49 57.0039 18.386 57.0039 19.48Z" fill="#F0C52E"/>
</g>
<defs>
<clipPath id="clip0_44041_288">
<rect width="136" height="164" fill="white" transform="translate(0 0.5)"/>
</clipPath>
</defs>
</svg>

<svg width="136" height="165" fill="none" xmlns="http://www.w3.org/2000/svg"><g clip-path="url(#a)"><path d="M93.133 39.267c8.121 0 14.945-5.542 16.9-13.05l5.467.815a2.159 2.159 0 0 0 2.451-1.816 2.157 2.157 0 0 0-1.816-2.451l-5.541-.825c.002-.046.004-.091.004-.138 0-.182-.006-.362-.014-.542 0 0-.451-6.518-1.074-9.237-.621-2.72-2.535-3.296-2.535-3.296-9.77-2.212-19.772-2.438-22.375-2.438-2.603 0-3.158 1.332-3.158 1.332l-3.15 4.996-.01-.003c-.076.122-.146.245-.219.368l-.027.043a17.387 17.387 0 0 0-2.367 8.777c-.001 9.646 7.819 17.465 17.464 17.465ZM131.535 78.576v-.002l-26.742-2.168-9.246-21.112s-.461-2.774-6.008-8.476c-5.55-5.702-16.8-3.39-16.8-3.39s-23.885 4.469-31.744 6.318c-7.86 1.85-8.168 9.863-8.168 9.863l-.632 4.519-15.178-2.941a3.012 3.012 0 0 0-3.516 2.374L6.09 101.803a3.008 3.008 0 0 0 2.375 3.516l51.196 9.923c.115.022.23.024.346.033h.002c-.728.104-1.291-.035-1.291-.035l-9.4-1.849-3.082 17.105-23.56 20.363a7.43 7.43 0 1 0 9.857 11.086s27.725-22.05 29.575-23.591c1.85-1.54 2.773-3.853 2.773-3.853s4.541-13.948 5.779-16.874c.848-2.004 4.932-1.079 4.932-1.079l22.885 8.631 7.615 29.062c.082.63.242 1.234.473 1.804h.002a7.428 7.428 0 0 0 14.112-4.512c-.842-4.965-4.604-27.046-5.561-31.826-1.078-5.394-4.621-6.934-4.621-6.934s-21.268-11.558-22.654-12.329c-1.387-.77-1.078-2.774-1.078-2.774l3.93-14.331 2.773 5.856s1.619 3.274 4.084 3.391l33.357.82a7.43 7.43 0 0 0 7.43-7.431 7.43 7.43 0 0 0-6.804-7.399ZM60.104 63.307l-1.79 5.88 9.899 1.919-20.214-3.917.548-2.496 11.557-1.386Zm-2.25 45.473-45.303-8.781 6.27-32.353 12.542 2.431-1.618 11.567-.64 4.406c-.005.026-.008.056-.012.082l-.018.127h.002a7.43 7.43 0 0 0 7.367 8.38 7.428 7.428 0 0 0 7.368-8.366l2.9-13.223 17.414 3.374-6.271 32.356ZM25.05 17.508h38.027c1.1 0 2-.896 2-1.99 0-1.094-.9-1.99-2-1.99H25.05c-1.1 0-2 .896-2 1.99 0 1.094.9 1.99 2 1.99ZM38.08 23.525c-1.1 0-2 .896-2 1.99 0 1.094.9 1.99 2 1.99h22.959c1.1 0 2-.896 2-1.99a2 2 0 0 0-2-1.99h-22.96Z" fill="#fff"/><path d="M87.098 33.232c8.121 0 14.945-5.542 16.9-13.049l5.467.814a2.159 2.159 0 0 0 2.451-1.816 2.157 2.157 0 0 0-1.816-2.451l-5.541-.825c.002-.046.004-.091.004-.138 0-.182-.006-.362-.014-.542 0 0-.451-6.518-1.074-9.237-.621-2.719-2.535-3.296-2.535-3.296C91.17.48 81.168.254 78.564.254c-2.604 0-3.158 1.332-3.158 1.332l-3.15 4.996-.01-.003c-.076.121-.146.245-.219.368L72 6.99a17.387 17.387 0 0 0-2.367 8.777c0 9.646 7.82 17.465 17.465 17.465ZM125.5 72.541v-.002l-26.742-2.168-9.246-21.112s-.461-2.774-6.008-8.476c-5.549-5.702-16.799-3.39-16.799-3.39s-23.886 4.47-31.745 6.317c-7.86 1.85-8.168 9.863-8.168 9.863L23.71 75.61l-.64 4.406c-.005.026-.008.056-.012.082l-.018.127h.002a7.43 7.43 0 0 0 7.367 8.38 7.428 7.428 0 0 0 7.368-8.366l4.734-21.58 11.557-1.387-1.789 5.88 9.898 1.92a3.01 3.01 0 0 1 2.375 3.516L57.14 106.83a3.012 3.012 0 0 1-2.948 2.43c-.072 0-.146-.016-.22-.021-.728.104-1.291-.035-1.291-.035l-9.4-1.849-3.082 17.105-23.56 20.363a7.43 7.43 0 1 0 9.857 11.086s27.725-22.05 29.575-23.591c1.85-1.54 2.773-3.853 2.773-3.853s4.541-13.948 5.779-16.874c.848-2.004 4.932-1.079 4.932-1.079l22.885 8.631 7.615 29.062c.082.63.242 1.234.473 1.804h.002a7.428 7.428 0 0 0 14.112-4.512c-.842-4.965-4.604-27.046-5.561-31.826-1.078-5.394-4.621-6.934-4.621-6.934S83.193 95.182 81.807 94.41c-1.387-.77-1.078-2.774-1.078-2.774l3.93-14.33 2.773 5.855s1.619 3.274 4.084 3.391l33.357.82a7.43 7.43 0 0 0 .627-14.83Z" fill="#3A3A3A"/><path d="M53.97 109.644h.003c.073.006.147.021.22.021 1.407 0 2.67-1 2.948-2.43l7.412-38.243a3.01 3.01 0 0 0-2.375-3.517l-20.214-3.917-1.286 5.862 17.413 3.374-6.271 32.354-45.304-8.779 6.27-32.353 12.542 2.431.832-5.95-15.178-2.942a3.012 3.012 0 0 0-3.516 2.374L.055 96.173a3.008 3.008 0 0 0 2.375 3.516l51.196 9.923c.114.022.229.023.345.032Z" fill="#F0C42E"/><path d="M59.042 9.482a2 2 0 0 1-2 1.99H19.015c-1.1 0-2-.896-2-1.99 0-1.094.9-1.99 2-1.99h38.027c1.1 0 2 .896 2 1.99ZM57.004 19.48c0 1.094-.9 1.99-2 1.99h-22.96c-1.1 0-2-.896-2-1.99a2 2 0 0 1 2-1.99h22.959c1.1 0 2 .896 2 1.99Z" fill="#F0C52E"/></g><defs><clipPath id="a"><path fill="#fff" transform="translate(0 .5)" d="M0 0h136v164H0z"/></clipPath></defs></svg>
